fs/shield_question_24_filled.svg

<svg viewBox="0 0 24 24" fill="none" xmlns="http://www.w3.org/2000/svg" height="1em" width="1em">
  <path d="M3 5.75C3 5.33579 3.33579 5 3.75 5C6.41341 5 9.00797 4.05652 11.55 2.15C11.8167 1.95 12.1833 1.95 12.45 2.15C14.992 4.05652 17.5866 5 20.25 5C20.6642 5 21 5.33579 21 5.75V11C21 16.0012 18.0424 19.6757 12.2749 21.9478C12.0982 22.0174 11.9018 22.0174 11.7251 21.9478C5.95756 19.6757 3 16.0012 3 11V5.75ZM13 16C13 15.4477 12.5523 15 12 15C11.4477 15 11 15.4477 11 16C11 16.5523 11.4477 17 12 17C12.5523 17 13 16.5523 13 16ZM10.75 9.75C10.75 9.05964 11.3096 8.5 12 8.5C12.6904 8.5 13.25 9.05964 13.25 9.75C13.25 10.197 13.002 10.4869 12.4702 11.0177L12.4226 11.0651C11.9521 11.5333 11.25 12.232 11.25 13.35C11.25 13.7642 11.5858 14.1 12 14.1C12.4142 14.1 12.75 13.7642 12.75 13.35C12.75 12.9006 12.9988 12.6093 13.5298 12.0794L13.5789 12.0304C14.0487 11.5631 14.75 10.8653 14.75 9.75C14.75 8.23122 13.5188 7 12 7C10.4812 7 9.25 8.23122 9.25 9.75C9.25 10.1642 9.58579 10.5 10 10.5C10.4142 10.5 10.75 10.1642 10.75 9.75Z" fill="#212121"/>
</svg>

<svg viewBox="0 0 24 24" fill="none" xmlns="http://www.w3.org/2000/svg" height="1em" width="1em">
  <path d="M3 5.75A.75.75 0 0 1 3.75 5c2.663 0 5.258-.943 7.8-2.85a.75.75 0 0 1 .9 0C14.992 4.057 17.587 5 20.25 5a.75.75 0 0 1 .75.75V11c0 5.001-2.958 8.676-8.725 10.948a.75.75 0 0 1-.55 0C5.958 19.676 3 16 3 11V5.75ZM13 16a1 1 0 1 0-2 0 1 1 0 0 0 2 0Zm-2.25-6.25a1.25 1.25 0 1 1 2.5 0c0 .447-.248.737-.78 1.268l-.047.047c-.47.468-1.173 1.167-1.173 2.285a.75.75 0 0 0 1.5 0c0-.45.249-.74.78-1.27l.049-.05c.47-.467 1.171-1.165 1.171-2.28a2.75 2.75 0 1 0-5.5 0 .75.75 0 0 0 1.5 0Z" fill="#212121"/>
</svg>
